website/mobile-icon.svg

<svg version="1.1" xmlns="http://www.w3.org/2000/svg" xmlns:xlink="http://www.w3.org/1999/xlink" width="14.07547" height="16.4747" viewBox="0,0,14.07547,16.4747"><g transform="translate(-232.96226,-171.76265)"><g data-paper-data="{&quot;isPaintingLayer&quot;:true}" fill-rule="nonzero" stroke="none" stroke-linecap="butt" stroke-linejoin="miter" stroke-miterlimit="10" stroke-dasharray="" stroke-dashoffset="0" style="mix-blend-mode: normal"><path d="" fill="#575e75" stroke-width="1"/><path d="" fill="#575e75" stroke-width="1"/><path d="M235.52144,188.23735c-1.43954,0 -2.55918,-1.11964 -2.55918,-2.39923v-11.67624c0,-1.27959 1.11964,-2.39923 2.39923,-2.39923h9.27702c1.27959,0 2.39923,1.11964 2.39923,2.39923v11.67624c0,1.27959 -1.11964,2.39923 -2.39923,2.39923zM243.83877,173.84198h-7.99743c-0.47985,0 -0.95969,0.47985 -0.95969,0.95969v6.07804c0,0.47985 0.47985,0.95969 0.95969,0.95969h7.99743c0.47985,0 0.95969,-0.47985 0.95969,-0.95969v-6.07804c0,-0.47985 -0.3199,-0.95969 -0.95969,-0.95969zM236.16124,184.07869c-0.47985,0 -0.95969,0.3199 -0.95969,0.79974c0,0.47985 0.47985,0.95969 0.95969,0.95969h7.83748c0.47985,0 0.95969,-0.47985 0.95969,-0.95969c-0.15995,-0.47985 -0.47985,-0.79974 -0.95969,-0.79974z" data-paper-data="{&quot;index&quot;:null}" fill="#ffffff" stroke-width="1"/><path d="M238.20798,185.05023c0,-0.9897 0.80231,-1.79202 1.79202,-1.79202c0.9897,0 1.79202,0.80231 1.79202,1.79202c0,0.9897 -0.80231,1.79202 -1.79202,1.79202c-0.9897,0 -1.79202,-0.80231 -1.79202,-1.79202z" fill="#000000" stroke-width="0"/></g></g></svg>

<?xml version="1.0" standalone="no"?>
<!DOCTYPE svg PUBLIC "-//W3C//DTD SVG 1.0//EN" "http://www.w3.org/TR/2001/REC-SVG-20010904/DTD/svg10.dtd">
<svg xmlns="http://www.w3.org/2000/svg" xmlns:xlink="http://www.w3.org/1999/xlink" id="body_1" width="24" height="28">

<g transform="matrix(1.6995758 0 0 1.6995758 0.038836986 -0)">
	<g transform="matrix(1 0 0 1 -232.96227 -171.76265)">
		<g>
            <path d="" stroke="none" fill="#575E75" fill-rule="nonzero" />
            <path d="" stroke="none" fill="#575E75" fill-rule="nonzero" />
            <path d="M235.52144 188.23735C 234.0819 188.23735 232.96227 187.1177 232.96227 185.83812L232.96227 185.83812L232.96227 174.16188C 232.96227 172.8823 234.08191 171.76265 235.3615 171.76265L235.3615 171.76265L244.63852 171.76265C 245.9181 171.76265 247.03775 172.8823 247.03775 174.16188L247.03775 174.16188L247.03775 185.83812C 247.03775 187.1177 245.9181 188.23735 244.63852 188.23735L244.63852 188.23735L235.52144 188.23735zM243.83878 173.84198L235.84134 173.84198C 235.3615 173.84198 234.88165 174.32182 234.88165 174.80167L234.88165 174.80167L234.88165 180.8797C 234.88165 181.35954 235.3615 181.83939 235.84134 181.83939L235.84134 181.83939L243.83878 181.83939C 244.31862 181.83939 244.79846 181.35954 244.79846 180.8797L244.79846 180.8797L244.79846 174.80167C 244.79846 174.32182 244.47856 173.84198 243.83878 173.84198zM236.16124 184.07869C 235.6814 184.07869 235.20155 184.39859 235.20155 184.87843C 235.20155 185.35828 235.6814 185.83812 236.16124 185.83812L236.16124 185.83812L243.99872 185.83812C 244.47856 185.83812 244.9584 185.35828 244.9584 184.87843C 244.79846 184.39859 244.47856 184.07869 243.99872 184.07869z" stroke="none" fill="#FFFFFF" fill-rule="nonzero" />
            <path d="M238.20798 185.05023C 238.20798 184.06053 239.01028 183.25821 240 183.25821C 240.9897 183.25821 241.79202 184.06052 241.79202 185.05023C 241.79202 186.03993 240.98972 186.84225 240 186.84225C 239.0103 186.84225 238.20798 186.03995 238.20798 185.05023z" stroke="none" fill="#000000" fill-rule="nonzero" />
		</g>
	</g>
</g>
</svg>
